X:1361
T:Polska efter Axel Emil Lundgren
T:Hamburska.  Östergötland, SvL 410
S:Efter Helén Erikkson
S:Efter Axel Emil Lundgren
Z:[[http://www.bluerose.karenlmyers.org/IncipitsPolskaNarke4.html|Karen Myers (#2201)]]
Z:Upptecknad 6/2007
M:3/4
L:1/8
R:Polska
O:Östergötland
K:D
f2 (Tf>e) d>f | A(A/B/ A>)(G F>)A | A>(A A,2) C>E | (EF/E/) (D>F) A>A |
f2 (Tf>e) d>f | A(A/B/ A>)(G F>)A | A>(A A,2) C>E | (EF/E/) D4 :|
|: (D>F) (Ad) f>G | (G>E) uE>ug ge | (eg/e/) (cA) ce | (ef/e/) (df) a2 |
(D>F) (Ad) f>G | (G>E) uE>ug ge | (eg/e/) (cA) ce | (ef/e/) d4 :|
(:musicend:)

(:music:)
